file/phillips-66.svg

<svg clip-rule="evenodd" fill-rule="evenodd" stroke-linejoin="round" stroke-miterlimit="1.41421" viewBox="0 0 560 400" xmlns="http://www.w3.org/2000/svg"><g transform="matrix(4.55904 0 0 4.55904 -2227.28 -175.82)"><path d="m549.958 112.044c3-3.989 7.161-4.802 12.326-5.294 6.108-.581 8.834-1.205 12.326-5.1 2.192-2.441 3.718-6.406 3.718-10.001 0-2.506-.13-4.575-1.368-8.17-2.654-7.697-3.49-10.589 2.609-17.649l-12.718-12.747c-2.741 2.29-8.676 6.276-16.893-.259-8.283 6.602-14.021 2.484-16.892.259l-12.72 12.747c6.068 7.06 5.501 9.972 2.609 17.649-1.303 3.466-1.368 5.753-1.368 8.17 0 3.6 1.402 7.55 3.718 10.001 3.607 3.82 6.329 4.512 12.326 5.1 5.347.52 9.327 1.372 12.327 5.294z" fill="#fefefe"/><path d="m549.958 110.474c3.067-3.465 7.708-4.236 12.393-4.706 5.868-.588 8.16-1.198 11.412-4.706 2.112-2.276 3.523-5.818 3.523-9.413 0-2.41-.386-5.345-1.5-8.367-3.038-8.234-2.356-11.632 2.412-17.385l-11.479-11.506s-7.368 6.864-16.761-.391c-9.327 7.255-16.762.391-16.762.391l-11.479 11.506c4.884 5.753 5.582 9.213 2.414 17.385-1.176 3.029-1.5 5.957-1.5 8.367 0 3.53 1.387 7.238 3.521 9.413 3.37 3.436 5.563 4.056 11.414 4.706 4.697.523 9.327 1.241 12.392 4.706z" fill="#373535"/><path d="m549.958 107.664c4.761-3.072 7.173-3.007 12.067-3.725 4.243-.624 7.022-.96 10.109-4.053 4.368-4.38 3.948-10.601 1.303-17.648-3.065-8.172-.358-12.943 2.217-16.212l-9.129-9.151s-7.174 5.688-16.567-.458c-9.392 6.146-16.568.458-16.568.458l-9.136 9.151c2.551 3.269 5.354 7.976 2.224 16.212-2.688 7.071-3 13.268 1.304 17.648 3.064 3.115 5.817 3.439 10.108 4.053 5.024.718 7.306.653 12.068 3.725z" fill="#fefefe"/><path d="m549.958 104.722c5.16-2.866 8.299-2.573 14.088-3.464 12.326-1.896 8.347-14.313 8.347-14.313.067-1.179-3.065-6.931-2.674-12.682h-39.523c.456 5.686-2.609 11.503-2.674 12.682 0 0-3.914 12.353 8.348 14.313 6.175.987 8.928.598 14.088 3.464z" fill="#ec3438"/><g fill="#373535"><path d="m536.918 63.199h1.532v3.257h1.584v-3.257h1.605v8.23h-1.605v-3.521h-1.584v3.521h-1.532"/><path d="m543.305 63.199h1.663v8.232h-1.663z"/><path d="m566.378 62.906c2.35 0 2.525 1.486 2.494 2.648h-1.632c-.007-1.815-1.783-1.536-1.769-.413.01.624 1.15 1.284 2.095 1.867.848.521 1.436 1.373 1.462 2.294.007.809-.353 2.333-2.65 2.333-2.332 0-2.52-1.742-2.529-2.731h1.565c-.003 2.018 1.893 1.776 1.905.456 0 0 .115-.617-.926-1.241-1.174-.703-2.494-1.229-2.465-2.942 0-.475.103-2.271 2.45-2.271z"/><path d="m550.91 63.199h1.654v6.943h1.795v1.289h-3.449"/><path d="m546.631 63.185h1.654v6.943h1.795v1.286h-3.449"/><path d="m531.168 63.166v8.306h1.663v-2.707c.463-.022 3.173.266 3.238-2.662.086-3.245-2.664-2.937-3.238-2.937zm1.663 1.248v2.976c.243 0 1.714.338 1.707-1.515-.005-1.646-1.368-1.461-1.707-1.461z"/><path d="m558.463 63.166v8.306h1.663v-2.707c.464-.022 3.173.266 3.236-2.662.088-3.245-2.662-2.937-3.236-2.937zm1.663 1.248v2.976c.245 0 1.712.338 1.707-1.515-.005-1.646-1.368-1.461-1.707-1.461z"/><path d="m555.175 63.198h1.661v8.231h-1.661z"/></g><path d="m558.305 87.269c1.56.326 1.029 2.393.487 3.871-.002.005-.005.01-.007.014-.55 1.493-1.654 3.111-3.01 2.748-.9-.242-.888-1.512-.569-2.762.128-.497.305-.994.492-1.418.572-1.301 1.45-2.693 2.607-2.453zm7.925-4.083c.288-.837-.123-3.746-3-4.706-5.379-1.8-9.49 1.013-11.609 6.96-.658 1.848-1.296 3.871-1.397 5.7-.125 2.263.569 4.226 3.058 5.184 2.82 1.085 7.6.653 9.784-2.942.416-.68.778-1.45 1.047-2.242.869-2.573.739-5.41-1.927-6.377-3.077-1.116-5.04.547-5.04.547s1.322-4.387 3.379-4.387c1.337 0 1.041 1.92 1.041 1.92" fill="#fefefe"/><path d="m541.114 87.269c1.56.326 1.029 2.393.484 3.871 0 .005-.002.01-.004.014-.55 1.493-1.654 3.111-3.008 2.748-.9-.242-.871-1.512-.54-2.762.132-.497.31-.994.497-1.418.574-1.301 1.414-2.693 2.571-2.453zm4.924-8.789c-5.544-1.831-9.52 1.142-11.608 6.96-.663 1.848-1.299 3.871-1.4 5.7-.124 2.263.572 4.226 3.06 5.184 2.82 1.085 7.601.653 9.785-2.942.413-.68.778-1.45 1.047-2.242.868-2.573.739-5.41-1.928-6.377-3.079-1.116-5.04.547-5.04.547s1.323-4.387 3.377-4.387c1.339 0 1.044 1.92 1.044 1.92l4.663.343c.288-.837-.12-3.756-3-4.706z" fill="#fefefe"/></g></svg>

<?xml version="1.0" encoding="UTF-8" standalone="no"?>
<!DOCTYPE svg PUBLIC "-//W3C//DTD SVG 1.1//EN" "http://www.w3.org/Graphics/SVG/1.1/DTD/svg11.dtd">
<svg width="100%" height="100%" viewBox="0 0 560 400" version="1.1" xmlns="http://www.w3.org/2000/svg" xmlns:xlink="http://www.w3.org/1999/xlink" xml:space="preserve" xmlns:serif="http://www.serif.com/" style="fill-rule:evenodd;clip-rule:evenodd;stroke-linejoin:round;stroke-miterlimit:1.41421;">
    <g transform="matrix(4.55904,0,0,4.55904,-2227.28,-175.82)">
        <path d="M549.958,112.044C552.958,108.055 557.119,107.242 562.284,106.75C568.392,106.169 571.118,105.545 574.61,101.65C576.802,99.209 578.328,95.244 578.328,91.649C578.328,89.143 578.198,87.074 576.96,83.479C574.306,75.782 573.47,72.89 579.569,65.83L566.851,53.083C564.11,55.373 558.175,59.359 549.958,52.824C541.675,59.426 535.937,55.308 533.066,53.083L520.346,65.83C526.414,72.89 525.847,75.802 522.955,83.479C521.652,86.945 521.587,89.232 521.587,91.649C521.587,95.249 522.989,99.199 525.305,101.65C528.912,105.47 531.634,106.162 537.631,106.75C542.978,107.27 546.958,108.122 549.958,112.044Z" style="fill:rgb(254,254,254);"/>
        <path d="M549.958,110.474C553.025,107.009 557.666,106.238 562.351,105.768C568.219,105.18 570.511,104.57 573.763,101.062C575.875,98.786 577.286,95.244 577.286,91.649C577.286,89.239 576.9,86.304 575.786,83.282C572.748,75.048 573.43,71.65 578.198,65.897L566.719,54.391C566.719,54.391 559.351,61.255 549.958,54C540.631,61.255 533.196,54.391 533.196,54.391L521.717,65.897C526.601,71.65 527.299,75.11 524.131,83.282C522.955,86.311 522.631,89.239 522.631,91.649C522.631,95.179 524.018,98.887 526.152,101.062C529.522,104.498 531.715,105.118 537.566,105.768C542.263,106.291 546.893,107.009 549.958,110.474Z" style="fill:rgb(55,53,53);"/>
        <path d="M549.958,107.664C554.719,104.592 557.131,104.657 562.025,103.939C566.268,103.315 569.047,102.979 572.134,99.886C576.502,95.506 576.082,89.285 573.437,82.238C570.372,74.066 573.079,69.295 575.654,66.026L566.525,56.875C566.525,56.875 559.351,62.563 549.958,56.417C540.566,62.563 533.39,56.875 533.39,56.875L524.254,66.026C526.805,69.295 529.608,74.002 526.478,82.238C523.79,89.309 523.478,95.506 527.782,99.886C530.846,103.001 533.599,103.325 537.89,103.939C542.914,104.657 545.196,104.592 549.958,107.664Z" style="fill:rgb(254,254,254);"/>
        <path d="M549.958,104.722C555.118,101.856 558.257,102.149 564.046,101.258C576.372,99.362 572.393,86.945 572.393,86.945C572.46,85.766 569.328,80.014 569.719,74.263L530.196,74.263C530.652,79.949 527.587,85.766 527.522,86.945C527.522,86.945 523.608,99.298 535.87,101.258C542.045,102.245 544.798,101.856 549.958,104.722Z" style="fill:rgb(236,52,56);"/>
        <path d="M536.918,63.199L538.45,63.199L538.45,66.456L540.034,66.456L540.034,63.199L541.639,63.199L541.639,71.429L540.034,71.429L540.034,67.908L538.45,67.908L538.45,71.429L536.918,71.429" style="fill:rgb(55,53,53);"/>
        <rect x="543.305" y="63.199" width="1.663" height="8.232" style="fill:rgb(55,53,53);"/>
        <path d="M566.378,62.906C568.728,62.906 568.903,64.392 568.872,65.554L567.24,65.554C567.233,63.739 565.457,64.018 565.471,65.141C565.481,65.765 566.621,66.425 567.566,67.008C568.414,67.529 569.002,68.381 569.028,69.302C569.035,70.111 568.675,71.635 566.378,71.635C564.046,71.635 563.858,69.893 563.849,68.904L565.414,68.904C565.411,70.922 567.307,70.68 567.319,69.36C567.319,69.36 567.434,68.743 566.393,68.119C565.219,67.416 563.899,66.89 563.928,65.177C563.928,64.702 564.031,62.906 566.378,62.906Z" style="fill:rgb(55,53,53);"/>
        <path d="M550.91,63.199L552.564,63.199L552.564,70.142L554.359,70.142L554.359,71.431L550.91,71.431" style="fill:rgb(55,53,53);"/>
        <path d="M546.631,63.185L548.285,63.185L548.285,70.128L550.08,70.128L550.08,71.414L546.631,71.414" style="fill:rgb(55,53,53);"/>
        <path d="M531.168,63.166L531.168,71.472L532.831,71.472L532.831,68.765C533.294,68.743 536.004,69.031 536.069,66.103C536.155,62.858 533.405,63.166 532.831,63.166L531.168,63.166ZM532.831,64.414L532.831,67.39C533.074,67.39 534.545,67.728 534.538,65.875C534.533,64.229 533.17,64.414 532.831,64.414Z" style="fill:rgb(55,53,53);"/>
        <path d="M558.463,63.166L558.463,71.472L560.126,71.472L560.126,68.765C560.59,68.743 563.299,69.031 563.362,66.103C563.45,62.858 560.7,63.166 560.126,63.166L558.463,63.166ZM560.126,64.414L560.126,67.39C560.371,67.39 561.838,67.728 561.833,65.875C561.828,64.229 560.465,64.414 560.126,64.414Z" style="fill:rgb(55,53,53);"/>
        <rect x="555.175" y="63.198" width="1.661" height="8.231" style="fill:rgb(55,53,53);"/>
        <path d="M558.305,87.269C559.865,87.595 559.334,89.662 558.792,91.14C558.79,91.145 558.787,91.15 558.785,91.154C558.235,92.647 557.131,94.265 555.775,93.902C554.875,93.66 554.887,92.39 555.206,91.14C555.334,90.643 555.511,90.146 555.698,89.722C556.27,88.421 557.148,87.029 558.305,87.269ZM566.23,83.186C566.518,82.349 566.107,79.44 563.23,78.48C557.851,76.68 553.74,79.493 551.621,85.44C550.963,87.288 550.325,89.311 550.224,91.14C550.099,93.403 550.793,95.366 553.282,96.324C556.102,97.409 560.882,96.977 563.066,93.382C563.482,92.702 563.844,91.932 564.113,91.14C564.982,88.567 564.852,85.73 562.186,84.763C559.109,83.647 557.146,85.31 557.146,85.31C557.146,85.31 558.468,80.923 560.525,80.923C561.862,80.923 561.566,82.843 561.566,82.843" style="fill:rgb(254,254,254);"/>
        <path d="M541.114,87.269C542.674,87.595 542.143,89.662 541.598,91.14C541.598,91.145 541.596,91.15 541.594,91.154C541.044,92.647 539.94,94.265 538.586,93.902C537.686,93.66 537.715,92.39 538.046,91.14C538.178,90.643 538.356,90.146 538.543,89.722C539.117,88.421 539.957,87.029 541.114,87.269ZM546.038,78.48C540.494,76.649 536.518,79.622 534.43,85.44C533.767,87.288 533.131,89.311 533.03,91.14C532.906,93.403 533.602,95.366 536.09,96.324C538.91,97.409 543.691,96.977 545.875,93.382C546.288,92.702 546.653,91.932 546.922,91.14C547.79,88.567 547.661,85.73 544.994,84.763C541.915,83.647 539.954,85.31 539.954,85.31C539.954,85.31 541.277,80.923 543.331,80.923C544.67,80.923 544.375,82.843 544.375,82.843L549.038,83.186C549.326,82.349 548.918,79.43 546.038,78.48Z" style="fill:rgb(254,254,254);"/>
    </g>
</svg>
